dist/icons/svgs/link-outline.svg

<svg xmlns="http://www.w3.org/2000/svg" width="24" height="24" fill="currentcolor" class="icon-link-outline" viewBox="0 0 24 24">
  <path d="M22.6562 12.4687L18.2422 16.8828C16.0156 19.0703 12.4609 19.0703 10.2734 16.8828C8.20312 14.7734 8.08594 11.4531 10 9.22651L10.1953 8.99214C10.5469 8.60151 11.1328 8.56245 11.5234 8.91401C11.9141 9.26557 11.9531 9.85151 11.6016 10.2421L11.4453 10.4374C10.1172 11.9218 10.1953 14.1484 11.6016 15.5546C13.0469 16.9999 15.4297 16.9999 16.9141 15.5546L21.3281 11.1406C22.7734 9.6562 22.7734 7.31245 21.3281 5.82807C19.9219 4.46089 17.6953 4.38276 16.2109 5.67182L15.9766 5.86714C15.5859 6.2187 15 6.17964 14.6484 5.78901C14.2969 5.39839 14.3359 4.81245 14.7266 4.46089L14.9609 4.26557C17.1875 2.31245 20.5469 2.42964 22.6562 4.49995C24.8438 6.68745 24.8438 10.2421 22.6562 12.4687ZM2.30469 11.5703L6.75781 7.1562C8.94531 4.9687 12.5 4.9687 14.6875 7.1562C16.7969 9.22651 16.9141 12.5859 14.9609 14.8124L14.7266 15.0468C14.4141 15.4374 13.7891 15.5156 13.3984 15.164C13.0078 14.8124 12.9688 14.2265 13.3203 13.8359L13.5547 13.6015C14.8438 12.1171 14.7656 9.89057 13.3594 8.48432C11.9141 6.99995 9.53125 6.99995 8.08594 8.48432L3.63281 12.8984C2.1875 14.3437 2.1875 16.7265 3.63281 18.2109C5.03906 19.5781 7.26562 19.6562 8.75 18.3671L8.98438 18.1718C9.375 17.8203 9.96094 17.8593 10.3125 18.2499C10.6641 18.6406 10.625 19.2265 10.2344 19.5781L10 19.7734C7.77344 21.7265 4.41406 21.6093 2.30469 19.539C0.117188 17.3515 0.117188 13.7578 2.30469 11.5703Z"/>
</svg>

<svg xmlns="http://www.w3.org/2000/svg" width="24" height="24" fill="currentColor" class="icon-link-outline" viewBox="0 0 24 24">
  <path d="m22.656 12.469-4.414 4.414c-2.226 2.187-5.781 2.187-7.969 0-2.07-2.11-2.187-5.43-.273-7.656l.195-.235a.933.933 0 0 1 1.328-.078c.391.352.43.938.079 1.328l-.157.195a3.707 3.707 0 0 0 .157 5.118c1.445 1.445 3.828 1.445 5.312 0l4.414-4.414a3.796 3.796 0 0 0 0-5.313c-1.406-1.367-3.633-1.445-5.117-.156l-.234.195a.933.933 0 0 1-1.329-.078.933.933 0 0 1 .079-1.328l.234-.195c2.226-1.953 5.586-1.836 7.695.234 2.188 2.188 2.188 5.742 0 7.969M2.305 11.57l4.453-4.414a5.61 5.61 0 0 1 7.93 0c2.109 2.07 2.226 5.43.273 7.657l-.234.234c-.313.39-.938.469-1.329.117a.933.933 0 0 1-.078-1.328l.235-.234a3.747 3.747 0 0 0-.196-5.118 3.68 3.68 0 0 0-5.273 0l-4.453 4.414c-1.445 1.446-1.445 3.829 0 5.313 1.406 1.367 3.633 1.445 5.117.156l.234-.195a.933.933 0 0 1 1.329.078.933.933 0 0 1-.079 1.328l-.234.195c-2.227 1.954-5.586 1.836-7.695-.234-2.188-2.187-2.188-5.781 0-7.969"/>
</svg>
